X: 14007
T: (LUKE) BARTLETT'S
C: Bob McQuillen Nov.'09
B: Bob's Note Book 14 #7
%R: reel
%D:2009
Z: 2020 John Chambers <jc:trillian.mit.edu>
M: C
L: 1/8
K: G
de \
| g2ga gedc | BGAB GEDE | G2GB AGBd | egdB A2de |
| g2ga gedc | BGAB GEDE | G2BG A2GE | DEGA G2  :|
|: fg \
| eceg d2BG | ABcd BGBd | e2ce dBdg | egag fdgf |
| eceg dBGB | ABcd B2BA | GBdB Acec | Bdgf g2  :|
%%begintext align
%% Neal Orzechowski
%% has several fiddle students, and two of them
%% are the Bartlett Brothers, Luke and Will.
%% They are real nice boys, and of course, they
%% each deserve a tune. Can you tell which one of
%% them this tune's for?
%%endtext

%%sep 1 1 500

%%sep 1 1 500

